X: 4
T:Mitton's Breakdo
R:Reel
C:Earl Mitton
N:Canadian Old Time reel
D:Lonely Bird - Aly Bain
M:4/4
L:1/8
Q:1/4=200
K:Bb
|:bBAB gBAB|bBAB fBAB|ABcd ecAc|BABg f3f|
bBAB gBAB|bBAB fBfB|ABcd ecAc|[1 BABc B3f:|[2 BABc B2A2|]
BBfB BgBB|aBBg BBfB|AAfA AgAA|aAAg AAfA|
BBfB BgBB|aBBg BBfB|ABcd ecAc|[1 BABc B2zA:|BABc B2zB|]
